X: 11
T:11.  Fully Engaged
C:c 2003 Harry Bolick  
R:Stomp
O:United States
A:Hastings-On-Hudson, New York
M:3/4
L:1/4
Q:150
K:F
|: "Dm" AAF|AFA| "Gm"d2 c| "C"G2 (F/2G/2)|
"Gm"d2 c | "C" G AB| "F" cc B | A (A/2B/2c)|
"Bb" d d/2e/2f | "C" g(fe)| "Dm"d AD|
"Am" c2 A|"Gm" (dd/2)c/2 (B/2A/2) |"C" G2 (F/2E/2) | "F" (F3|F3):|
{(efg)}"Dm"aa(g|a)a(g|a)(Bd)|"Bb"f3|
 "C" gg(f|g)g(f|g)(cA) |"Dm"d3| 
"Dm"aa(g|a)ag|"F" (c'2 b/2a/2) |"G" =b3|
"Bb" f2(g/2<a/2) |"C" gec| "Dm"(d3|d3):|
